!!!!SEGMENT: pl-kk--kk-i-88--001-005_golabek-jakub--missa-1-sanctus.krn
!!!cenid: 17xx:2570
!!!COM: Gołąbek, Jakub
!!!COM-rismID: pe30008748
!!!CDT: 1739-1789/03/30
!!!CNT: Polish
!!!OPR: Missa 1
!!!OTL: Sanctus
!!!OMV: 005
!!!PDT:
!!!AGN: Sacred; Mass
!!!YEC: Copyright 2022 Narodowy Instytut Fryderyka Chopina (https://polishscores.org)
!!!YEM: License CC-BY-4.0 (https://creativecommons.org/licenses/by/4.0)
!!!SMS-siglum: PL-Kk
!!!SMS-shelfmark: Kk.I.88
!!!SMS-variant:
!!!SMS-altvar:
!!!SMS-shelfwork: 001-005 M
!!!NIFC-rismSourceID: 1001164072
!!!NIFC-rismChildID: 1001155167
!!!NIFC-islandoraID:
!!!URL-pdf-islandora: https://repozytorium.nifc.pl/islandora/object/pl-kk%3A3086/datastream/PDF/view
!!!URL-scan: https://polish.musicsources.pl/pl/lokalizacje/galeria/rekopisy/6148-missa/4 @EN{Scan on Polish Music Sources Website} @PL{Skany w portalu Dziedzictwo Muzyki Polskiej w otwartym dostępie}
!!!IIIF:
!!!ONB-nifc: UWAGA: C - f. 2r-3v; A - f. 10r-11v; T - f. 18r-19v; B - f. 26r-27v; B rip - f. 33r-34r. Proszę uwzględniać B rip. Części Mszy: 1. Kyrie, 2. Christe, 3. Et in terra, 4. Quoniam, 5. Sanctus, 6. Osanna, 7. Benedictus, 8. Agnus Dei, 9. Dona nobis
!!!OMD: Lente
!!!AIN: 1 alto 2 bass 1 canto 1 tenor
!!!key: C
**kern	**text	**kern	**text	**kern	**text	**kern	**text	**kern	**text
*part5	*part5	*part4	*part4	*part3	*part3	*part2	*part2	*part1	*part1
*staff5	*staff5	*staff4	*staff4	*staff3	*staff3	*staff2	*staff2	*staff1	*staff1
*I"Baſso E ripieno	*	*I"Baſso	*	*I"Tenore	*	*I"Alto	*	*I"Canto	*
*I'B rip	*	*I'B	*	*I'T	*	*I'A	*	*I'S	*
*Ibass	*	*Ibass	*	*Itenor	*	*Ialto	*	*Icanto	*
*ICvox	*	*ICvox	*	*ICvox	*	*ICvox	*	*ICvox	*
*clefF4	*	*clefF4	*	*clefC4	*	*clefC3	*	*clefC1	*
*k[]	*	*k[]	*	*k[]	*	*k[]	*	*k[]	*
*C:	*	*C:	*	*C:	*	*C:	*	*C:	*
*M2/2	*	*M2/2	*	*M2/2	*	*M2/2	*	*M2/2	*
*met(c|)	*	*met(c|)	*	*met(c|)	*	*met(c|)	*	*met(c|)	*
=1	=1	=1	=1	=1	=1	=1	=1	=1	=1
!LO:TX:a:t=Lente	!	!LO:TX:a:t=Lente	!	!	!	!	!	!	!
4C\	San-	4C\	San-	1G	San-	1e	San-	1cc	San-
4E\	.	4E\	.	.	.	.	.	.	.
4G\	.	4G\	.	.	.	.	.	.	.
4c\	.	4c\	.	.	.	.	.	.	.
=2	=2	=2	=2	=2	=2	=2	=2	=2	=2
4G\	-ctus	4G\	-ctus	4B\	-ctus	4d\	-ctus	4b\	-ctus
4r	.	4r	.	4r	.	8d\L	San-	8b\L	San-
.	.	.	.	.	.	8e\J	.	8cc\J	.
2r	.	2r	.	2r	.	8f\L	.	8dd\L	.
.	.	.	.	.	.	8e\	.	8cc\	.
.	.	.	.	.	.	8f\	.	8dd\	.
.	.	.	.	.	.	8d\J	.	8b\J	.
=3	=3	=3	=3	=3	=3	=3	=3	=3	=3
4C\	San-	4C\	San-	1G	San-	4e\	-ctus	4cc\	-ctus
*	*	*	*	*	*	*2\right	*	*2\right	*
4E\	.	4E\	.	.	.	2e\	San-	2cc\	San-
4G\	.	4G\	.	.	.	.	.	.	.
4c\	.	4c\	.	.	.	4e\	-ctus	4cc\	.
=4	=4	=4	=4	=4	=4	=4	=4	=4	=4
4G\	-ctus	4G\	-ctus	4G/	-ctus	4d\	San-	4b\	-ctus
*	*	*	*	*	*ij	*	*	*	*
4r	.	4r	.	2G/	San-	8d\L	.	8b\L	san-
.	.	.	.	.	.	8e\J	.	8cc\J	.
2r	.	2r	.	.	.	8f\L	.	8dd\L	.
.	.	.	.	.	.	8e\	.	8cc\	.
.	.	.	.	4G/	-ctus	8f\	.	8dd\	.
*	*	*	*	*	*Xij	*	*	*	*
.	.	.	.	.	.	8d\J	.	8b\J	.
=5	=5	=5	=5	=5	=5	=5	=5	=5	=5
4c\	San-	4c\	San-	4G/	San-	1e	.	1cc	.
4A\	.	4A\	.	4c\	.	.	.	.	.
4G\	.	4G\	.	4B\	.	.	.	.	.
4F#X\	.	4F#X\	.	4A\	.	.	.	.	.
=6	=6	=6	=6	=6	=6	=6	=6	=6	=6
*2\right	*	*2\right	*	*2\right	*	*	*	*	*
2G\	-ctus	2G\	-ctus	2B\	-ctus	2d\	-ctus	2b\	-ctus
2r	.	2r	.	2r	.	2r	.	2r	.
!	!	!	!	!	!	!	!	!LO:LB:g=original	!
=7	=7	=7	=7	=7	=7	=7	=7	=7	=7
4.Fn\	Do-	4.Fn\	Do-	4.G/	Do-	4.d\	Do-	4.b\	Do-
8F\	-mi-	8F\	-mi-	8G/	-mi-	8d\	-mi-	8b\	-mi-
2F\	-nus	2F\	-nus	2G/	-nus	2d\	-nus	2b\	-nus
!	!	!LO:LB:g=original	!	!	!	!LO:LB:g=original	!	!	!
=8	=8	=8	=8	=8	=8	=8	=8	=8	=8
4.E\	De-	4.E\	De-	2G/	De-	4.e\	De-	4.cc\	De-
8D\	.	8D\	.	.	.	8f\	.	8dd\	.
2C/	-us	2C/	-us	2c\	-us	2g\	-us	2ee\	-us
!	!	!	!	!LO:LB:g=original	!	!	!	!	!
=9	=9	=9	=9	=9	=9	=9	=9	=9	=9
4C\	Sa-	4C\	Sa-	2.G/	Sa-	2.e\	Sa-	2.cc\	Sa-
4D\	.	4D\	.	.	.	.	.	.	.
4E\	.	4E\	.	.	.	.	.	.	.
4F#X\	-ba-	4F#X\	-ba-	4A\	-ba-	4e\	-ba-	4cc\	-ba-
!LO:LB:g=original	!	!	!	!	!	!	!	!	!
=10	=10	=10	=10	=10	=10	=10	=10	=10	=10
1G	-oth.	1G;	-oth.	1G;	-oth	1d;	-oth	1b;	-oth
=11||	=11||	=11||	=11||	=11||	=11||	=11||	=11||	=11||	=11||
2G\	Ple-	2G\	Ple-	2B\	Ple-	1r	.	1r	.
4B\	-ni-	4B\	-ni-	4d\	-ni-	.	.	.	.
4G\	-sunt	4G\	-sunt	4B\	-sunt	.	.	.	.
=12	=12	=12	=12	=12	=12	=12	=12	=12	=12
4c\	cae-	4c\	cae-	4e\	cae-	4r	.	4r	.
4C/	-li	4C/	-li	4e\	-li	4g\	Cae-	4ee\	cae-
2r	.	2r	.	2r	.	4f\	-li	4dd\	-li
.	.	.	.	.	.	4e\	et	4cc\	et
=13	=13	=13	=13	=13	=13	=13	=13	=13	=13
2G\	glo-	2G\	glo-	2B\	glo-	4d\	ter-	4b\	ter-
.	.	.	.	.	.	4d\	-ra	4b\	-ra
4B\	-ri-	4B\	-ri-	4d\	-ri-	2r	.	2r	.
4G\	-a	4G\	-a	4B\	-a	.	.	.	.
=14	=14	=14	=14	=14	=14	=14	=14	=14	=14
4c\	tu-	4c\	tu-	4e\	tu-	4r	.	4r	.
4C/	-a	4C/	-a	4e\	-a	4g\	glo-	4ee\	glo-
2r	.	2r	.	2r	.	4f\	-ri-	4dd\	-ri-
.	.	.	.	.	.	4e\	-a	4cc\	-a
!	!	!	!	!	!	!	!	!LO:LB:g=original	!
=15	=15	=15	=15	=15	=15	=15	=15	=15	=15
2r	.	2r	.	2r	.	4d\	tu-	4b\	tu-
.	.	.	.	.	.	4d\	-a	4b\	-a
2G\	glo-	2G\	glo-	2d\	glo-	2g\	glo-	2b\	glo-
!	!	!	!	!LO:LB:g=original	!	!LO:LB:g=original	!	!	!
=16	=16	=16	=16	=16	=16	=16	=16	=16	=16
2A\	.	2A\	.	2d\	.	2f#X\	.	2cc\	.
2B\	.	2B\	.	2G/	.	2fn\	.	2dd\	.
!	!	!LO:LB:g=original	!	!	!	!	!	!	!
=17	=17	=17	=17	=17	=17	=17	=17	=17	=17
4c\	.	4c\	.	1G	.	4e\	.	4cc\	.
4G\	.	4G\	.	.	.	4d\	.	4b\	.
4E\	.	4E\	.	.	.	4e\	.	4cc\	.
4C\	.	4C\	.	.	.	4g\	.	4ee\	.
=18	=18	=18	=18	=18	=18	=18	=18	=18	=18
2G\	.	2G\	.	2B\	.	2f\	.	2dd\	.
4E\	-ri-	4E\	-ri-	4G/	-ri-	4e\	-ri-	4cc\	-ri-
4E\	-a	4E\	-a	4G/	-a	4e\	-a	4cc\	-a
=19	=19	=19	=19	=19	=19	=19	=19	=19	=19
2G\	tu-	2G\	tu-	2B/	tu-	2d\	tu-	2b\	tu-
2c\	.	2c\	.	2G/	.	2e\	.	2cc\	.
!LO:LB:g=original	!	!	!	!	!	!	!	!	!
=20	=20	=20	=20	=20	=20	=20	=20	=20	=20
1G	.	1G	.	1G	.	2e\	.	2cc\	.
.	.	.	.	.	.	2d\	.	2b\	.
=21	=21	=21	=21	=21	=21	=21	=21	=21	=21
1C	-a	1C	-a	1G	-a	1e	-a	1cc	-a
==;;	==	==;;	==	==;;	==	==;;	==	==;;	==
*-	*-	*-	*-	*-	*-	*-	*-	*-	*-
!!!system-decoration: [(s1,s2,s3,s4)]s5
!!!ENC: Berenika Jozajtis
!!!END: 2024-02-22
!!!EED: Marta Chmielewska
!!!EEV: 2024-04-29
